64x64/apps/appimagekit-qv2ray.svg

<svg height="64" width="64" xmlns="http://www.w3.org/2000/svg"><rect height="56" opacity=".2" rx="3" width="56" x="4" y="5"/><rect fill="#f4f4f7" height="56" rx="3" width="56" x="4" y="4"/><path d="m15 19c-3 0-5 3-5 6 0 2 1.35 5 3 5 2.903-3.484 4.131-4.938 6.795-5.55-2.858 3.24-4.795 8.55-4.795 8.55s2.278-2.273 8.146-2.861l-2.146 2.861s1.082.228 2.904.836c-.283 1.55-1.41 4.917-5.904 7.164 5.787 0 11.127-2.057 14.227-3.533 4.848 2.578 10.768 6.528 16.773 12.533l-7.1-15.775c6.218 2.73 11.1 5.775 11.1 5.775s-11.05-11.048-21.125-15.832c8.99.892 21.125 5.332 21.125 5.332s-17-10.5-38-10.5z" opacity=".1"/><path d="m24 32s0 5-6 8c9 0 17-5 17-5z" fill="#225bbe"/><path d="m24 32s0 5-6 8c.597 0 1.188-.025 1.773-.066 4.217-2.985 4.227-6.934 4.227-6.934l9.8 2.674c.675-.365 1.2-.674 1.2-.674z" fill="#f4f4f7" opacity=".1"/><path d="m24 32s-.002.713-.324 1.76c1.794.587 4.395 1.584 7.517 3.17 2.327-1.03 3.807-1.93 3.807-1.93z" opacity=".2"/><path d="m21 32s13.8 2.8 28 17l-9-20-16-1z" fill="#008eff"/><path d="m24 28-3 4s.224.046.635.152l2.365-3.152 16 1 8.21 18.248c.264.256.526.488.79.752l-9-20z" fill="#f4f4f7" opacity=".2"/><path d="m24 28-1.68 2.24c1.09-.146 2.306-.24 3.68-.24 5.116 0 11.299 2.165 16.465 4.479l-2.42-5.377-.156-.11z" opacity=".2"/><path d="m15 32s4-11 9-11c11 0 29 18 29 18s-16-10-27-10c-8 0-11 3-11 3z" fill="#bb4eff"/><path d="m24 21c-5 0-9 11-9 11s.192-.19.604-.475c1.239-2.911 4.469-9.525 8.396-9.525 8.38 0 20.771 10.405 26.223 15.38 1.725.967 2.777 1.62 2.777 1.62s-18-18-29-18z" fill="#f4f4f7" opacity=".2"/><path d="m24 21c-1.957 0-3.756 1.69-5.227 3.742 1.999-.741 4.748-.742 10.227-.742 1.63 0 3.461.185 5.361.48-3.637-2.039-7.274-3.48-10.361-3.48z" opacity=".2"/><path d="m13 29c-1.65 0-3-3-3-5 0-3 2-6 5-6 21 0 38 10.5 38 10.5s-15-5.5-24-5.5c-11 0-11 0-16 6z" fill="#ff8080"/><g fill="#f4f4f7"><path d="m7 4c-1.662 0-3 1.338-3 3v1c0-1.662 1.338-3 3-3h50c1.662 0 3 1.338 3 3v-1c0-1.662-1.338-3-3-3z" opacity=".1"/><path d="m15 18c-3 0-5 3-5 6 0 .164.021.342.04.518.2-2.83 2.121-5.518 4.96-5.518 13.966 0 26.129 4.635 32.732 7.746a122.96 122.96 0 0 1 5.268 1.754s-17-10.5-38-10.5z" opacity=".2"/></g></svg>

<svg width="64" height="64" xmlns="http://www.w3.org/2000/svg"><rect x="4" y="5" width="56" height="56" rx="3" ry="3" style="opacity:.2"/><rect x="4" y="4" width="56" height="56" rx="3" ry="3" style="fill:#f4f4f7"/><path d="M15 19c-3 0-5 3-5 6 0 2 1.35 5 3 5 2.903-3.484 4.131-4.938 6.795-5.55C16.937 27.69 15 33 15 33s2.278-2.273 8.146-2.861L21 33s1.082.228 2.904.836c-.283 1.55-1.41 4.917-5.904 7.164 5.787 0 11.127-2.057 14.227-3.533C37.075 40.045 42.995 43.995 49 50l-7.1-15.775C48.118 36.955 53 40 53 40S41.95 28.952 31.875 24.168C40.865 25.06 53 29.5 53 29.5S36 19 15 19z" style="opacity:.1"/><path d="M24 32s0 5-6 8c9 0 17-5 17-5z" style="fill:#225bbe"/><path d="M24 32s0 5-6 8c.597 0 1.188-.025 1.773-.066C23.99 36.949 24 33 24 33l9.8 2.674C34.475 35.309 35 35 35 35l-11-3z" style="fill:#f4f4f7;opacity:.1"/><path d="M24 32s-.002.713-.324 1.76c1.794.587 4.395 1.584 7.517 3.17C33.52 35.9 35 35 35 35l-11-3z" style="opacity:.2"/><path d="M21 32s13.8 2.8 28 17l-9-20-16-1z" style="fill:#008eff"/><path d="m24 28-3 4s.224.046.635.152L24 29l16 1 8.21 18.248c.264.256.526.488.79.752l-9-20-16-1z" style="fill:#f4f4f7;opacity:.2"/><path d="m24 28-1.68 2.24c1.09-.146 2.306-.24 3.68-.24 5.116 0 11.299 2.165 16.465 4.479l-2.42-5.377-.156-.11L24 28z" style="opacity:.2"/><path d="M15 32s4-11 9-11c11 0 29 18 29 18S37 29 26 29c-8 0-11 3-11 3z" style="fill:#bb4eff"/><path d="M24 21c-5 0-9 11-9 11s.192-.19.604-.475C16.843 28.614 20.073 22 24 22c8.38 0 20.771 10.405 26.223 15.38C51.948 38.347 53 39 53 39S35 21 24 21z" style="fill:#f4f4f7;opacity:.2"/><path d="M24 21c-1.957 0-3.756 1.69-5.227 3.742C20.772 24.001 23.521 24 29 24c1.63 0 3.461.185 5.361.48C30.724 22.441 27.087 21 24 21z" style="opacity:.2"/><path d="M13 29c-1.65 0-3-3-3-5 0-3 2-6 5-6 21 0 38 10.5 38 10.5S38 23 29 23c-11 0-11 0-16 6z" style="fill:#ff8080"/><path d="M7 4C5.338 4 4 5.338 4 7v1c0-1.662 1.338-3 3-3h50c1.662 0 3 1.338 3 3V7c0-1.662-1.338-3-3-3H7z" style="fill:#f4f4f7;opacity:.1"/><path d="M15 18c-3 0-5 3-5 6 0 .164.021.342.04.518C10.24 21.688 12.161 19 15 19c13.966 0 26.129 4.635 32.732 7.746A122.96 122.96 0 0 1 53 28.5S36 18 15 18z" style="fill:#f4f4f7;opacity:.2"/></svg>
